X: 616
T: Puddings and Pies
P: Longways for as many as will
%R: jig
B: "The Dancing-Master" printed by John Walsh, London
S: 6: CCDM1 http://imslp.org/wiki/The_Compleat_Country_Dancing-Master_(Various) V.1 p.15 #33
Z: 2012-2013 John Chambers <jc:trillian.mit.edu>
B: "The Dancing-Master: Containing Directions and Tunes for Dancing" printed by W. Pearson for John Walsh, London ca. 1709
S: 7: DMDfD http://digital.nls.uk/special-collections-of-printed-music/pageturner.cfm?id=89751228 p.29
N: Note the 3/6-bar phrase lengths. The two versions differ only in the last note of bar 8.
M: 6/4
L: 1/4
K: D
% - - - - - - - - - - - - - - - - - - - - - - - - -
A | B>cd c>BA | B/c/dB AFA | E3- E2A | B>cd c>BA | B/c/dB AFA | D3- D2 |]
A | BGB AFA | BGB AF[GD] | E3- E2A | BGB AFA | B/c/dB AGA | D3- D2 |]
% - - - - - - - - - - - - - - - - - - - - - - - - -
%%begintext align
%% The 1st Cu. cross over below the 2d Cu. and Back to Back .|
%% Then cross over again below the 3d Cu. and Back to Back :| The
%% 1st Man being in the 3d Man's Place, turns the 3d Wo. with his
%% right Hand; The 1st Wo. being in the 3d Wo. Place, turns the
%% 2d Man (being in the 1st Man's Place) with her right Hand,
%% and her Partner with her left Hand in the 2d Cu. Place; the
%% 1st Man being in the 2d Man's Place, turns the 2d Wo. (being
%% in the 1st Wo. Place) with his right Hand, and his Partner
%% with his left Hand, in the 2d Cu. Place.
%% [CCDM1]
%%endtext
%%sep 1 1 500
%%begintext align
%% The 1. cu cross over below the 2. cu. and back to back .| Then cross over again below the 3. cu.
%% and back to back :| The 1. man being in the third man's place turns the 3. wo. with the right hand;
%% The 1. wo. being in the 3. wo. place turns the 2. man, being in the 1. man's place, with the right
%% hand, and turns her partner with the left hand in the 2. cu. place, the 1. man being in the 2. man's
%% place turns the 2. wo. being in the 1. wo. place, and turns his partner with the left-hand in the 2.
%% cu. place.
%% [DMDfD]
%%endtext
%%sep 1 8 500

%%sep 1 1 500
%%sep 1 1 500
